X:1
T:Biberach, 98.98 D
T:Biberach, 98.98 D
T:Justin Heinrich Knecht, 1793
T:Public Domain Courtesy of the Cyber Hymnal™
C:Justin Heinrich Knecht, 1793
Z:Public Domain
Z:Courtesy of the Cyber Hymnal™
%%score ( 1 2 ) ( 3 4 )
L:1/8
Q:1/4=110
M:4/4
K:Eb
V:1 treble 
V:2 treble 
V:3 bass 
V:4 bass 
V:1
 z2 [Ge]2 [EB]2 [EG]2 | [Ec]2 [EA]2 [EF]2 [DA]2 | [B,G]2 [B,E]4 [B,G]2 | [B,F]2 [CE]2 [DB]2 [DB]2 | %4
 [Fd]2 c2 [DB]4 | z2 [Ge]2 [EB]2 [EG]2 | [Ec]2 [EA]2 [EF]2 [DA]2 | [B,G]2 [B,E]4 [B,G]2 | %8
 [B,F]2 [CE]2 [DB]2 [DB]2 | [Fd]2 c2 [DB]4 | z2 [Ff]2 [Fd]2 [DB]2 | [Ee]2 [EB]2 [EB]2 A2 | %12
 [FA]2 [EG]4 B2 | [CB]2 [FA]2 [FA]2 [EG]2 | [Ec]2 [CE]2 [B,D]4 | z2 [B,E]2 [CE]2 [_DE]2 | %16
 [CE]2 [EG]2 [EA]2 [Ec]2 | [Ec]2 [EB]4 [Ec]2 | [FA]2 [CF]2 [Fd]2 [Ee]2 | [EG]2 [DF]2 [B,E]4 |] %20
V:2
 x8 | x8 | x8 | x8 | x2 (FE) x4 | x8 | x8 | x8 | x8 | x2 (FE) x4 | x8 | x6 (DE) | x6 (E_D) | x8 | %14
 x8 | x8 | x8 | x8 | x8 | x8 |] %20
V:3
 z2 [E,B,]2 [G,B,]2 [E,B,]2 | [A,C]2 [F,C]2 B,2 [B,,F,]2 | [E,G,]2 [E,G,]4 E,2 | %3
 [D,F,]2 (G,=A,) [B,,B,]2 [G,B,]2 | [F,B,]2 [F,=A,]2 [B,,B,]4 | z2 [E,B,]2 [G,B,]2 [E,B,]2 | %6
 [A,C]2 [F,C]2 B,2 [B,,F,]2 | [E,G,]2 [E,G,]4 E,2 | [D,F,]2 (G,=A,) [B,,B,]2 [G,B,]2 | %9
 [F,B,]2 [F,=A,]2 [B,,B,]4 | z2 [B,,D]2 B,2 [A,B,]2 | [G,B,]2 [G,B,]2 [F,C]2 [B,,B,]2 | %12
 [F,B,]2 [E,B,]4 ([G,B,][F,A,]) | [=E,G,]2 C2 [D,B,]2 [=E,B,]2 | [A,,A,]2 [=A,,G,]2 [B,,F,]4 | %15
 z2 [G,,G,]2 [C,G,]2 [B,,G,]2 | [A,,A,]2 [_D,B,]2 [C,A,]2 A,2 | [E,A,]2 [E,G,]4 [A,,A,]2 | %18
 [A,,C]2 [A,,A,]2 [B,,A,]2 (G,A,) | [B,,B,]2 (B,A,) [E,G,]4 |] %20
V:4
 x8 | x4 B,2 x2 | x6 E,2 | x2 C,2 x4 | x8 | x8 | x4 B,2 x2 | x6 E,2 | x2 C,2 x4 | x8 | x4 B,2 x2 | %11
 x8 | x8 | x2 (F,_E,) x4 | x8 | x8 | x6 (A,,C,) | x8 | x6 C,2 | x2 B,,2 x4 |] %20

